X:671
T:Shepherds Round
C:Johnson, Volume 6
L:1/4
M:2/2
S:Colin Hume's website,  colinhume.com  - chords can also be printed below the stave.
Q:1/2=100
K:D
P:A
|: "D"DA "/"F/G/A/F/ | "A"AB/c/ "D"d2 | "D"AB/c/ "Bm"d/c/B/A/ | "Em"BE "A7"EF |\
"D"DA "/"F/G/A/F/ | "A"AB/c/ "Bm"d/c/B/A/ | "G"de/f/ "A7"ec | "D"dD "/"D2 :|
P:B
|: "D"d/e/f/g/ "/"ad | "A7"ce "/"eg | "D"f/g/a "A/C#"e/f/g | "Bm"fd "G"dG |\
"D"FE/D/ "Bm"FG/A/ | "G"BA/G/ "Em"Bc/d/ | "D/A"de/f/ "A7"ec | "D"dD "/"D2 :|

